public/images/icons/clocks.svg

<svg width="20" height="20" viewBox="0 0 20 20" fill="none" xmlns="http://www.w3.org/2000/svg">
<path d="M10 0C4.47581 0 0 4.47581 0 10C0 15.5242 4.47581 20 10 20C15.5242 20 20 15.5242 20 10C20 4.47581 15.5242 0 10 0ZM10 18.0645C5.54435 18.0645 1.93548 14.4556 1.93548 10C1.93548 5.54435 5.54435 1.93548 10 1.93548C14.4556 1.93548 18.0645 5.54435 18.0645 10C18.0645 14.4556 14.4556 18.0645 10 18.0645ZM12.4919 13.8548L9.06855 11.3669C8.94355 11.2742 8.87097 11.129 8.87097 10.9758V4.35484C8.87097 4.08871 9.08871 3.87097 9.35484 3.87097H10.6452C10.9113 3.87097 11.129 4.08871 11.129 4.35484V10.0685L13.8226 12.0282C14.0403 12.1855 14.0847 12.4879 13.9274 12.7056L13.1694 13.75C13.0121 13.9637 12.7097 14.0121 12.4919 13.8548Z" fill="#BFBFC5"/>
</svg>

<svg xmlns="http://www.w3.org/2000/svg" width="20" height="20" fill="none" viewBox="0 0 20 20"><path fill="#BFBFC5" d="M10 0C4.476 0 0 4.476 0 10s4.476 10 10 10 10-4.476 10-10S15.524 0 10 0zm0 18.064A8.062 8.062 0 0 1 1.935 10 8.062 8.062 0 0 1 10 1.935 8.062 8.062 0 0 1 18.064 10 8.062 8.062 0 0 1 10 18.064zm2.492-4.21l-3.423-2.487a.487.487 0 0 1-.198-.391V4.355c0-.266.218-.484.484-.484h1.29c.266 0 .484.218.484.484v5.713l2.694 1.96c.217.157.262.46.104.678l-.758 1.044a.487.487 0 0 1-.677.105z"/></svg>
